X:37
T:Bonaparteâ€™s Retreat
R:Reel
M:C
L:1/8
N:from Songs from the Mountain, SUGA-CD3952
N:Transcribed by Bruce Thomson
K:D
|z6(3ABc|:â€Dâ€d3dd2(3ABc|d2c2B2A2|â€Gâ€B3B
BABc|d2c2B2A2|â€Dâ€d3dd2fe|
d2dBA2F2|â€Aâ€EFDE
FDEF|[1D6d2:|[2D6EF|:â€Dâ€F2F2AFDG|F2F2AFDG|
â€œAâ€E2EF GFED|E2EF GFED|â€Dâ€F2F2AFDG|F2FG
AFED|â€Aâ€EFDE FDEF|â€Dâ€D8:|

